source/img/logo/logo-footer-desktop.svg

<svg width="147" height="40" viewBox="0 0 147 40" fill="none" xmlns="http://www.w3.org/2000/svg">
<path d="M72.1933 18.4251C72.1932 18.0924 72.3255 17.7728 72.562 17.5348C72.7985 17.2967 73.1204 17.1591 73.4588 17.1514H80.6703C85.7826 17.1514 89.1473 19.8272 89.1473 24.2113V24.2705C89.1473 29.0693 85.0695 31.5575 80.2484 31.5575H74.7544V38.2916C74.7702 38.4663 74.7488 38.6423 74.6916 38.8084C74.6344 38.9745 74.5426 39.1271 74.4222 39.2565C74.3017 39.3859 74.1552 39.4892 73.992 39.5599C73.8287 39.6306 73.6522 39.6671 73.4738 39.6671C73.2954 39.6671 73.119 39.6306 72.9557 39.5599C72.7925 39.4892 72.6459 39.3859 72.5255 39.2565C72.405 39.1271 72.3133 38.9745 72.2561 38.8084C72.1989 38.6423 72.1775 38.4663 72.1933 38.2916V18.4251ZM80.3489 29.2865C84.0952 29.2865 86.556 27.3117 86.556 24.3495V24.2903C86.556 21.1108 84.1354 19.4619 80.5297 19.4619H74.8047V29.247L80.3489 29.2865Z" fill="#283645"/>
<path d="M94.0187 18.2671C94.0029 18.0924 94.0243 17.9164 94.0815 17.7502C94.1387 17.5841 94.2305 17.4315 94.3509 17.3021C94.4714 17.1728 94.6179 17.0695 94.7812 16.9988C94.9444 16.9281 95.1209 16.8916 95.2993 16.8916C95.4777 16.8916 95.6541 16.9281 95.8174 16.9988C95.9807 17.0695 96.1272 17.1728 96.2476 17.3021C96.3681 17.4315 96.4598 17.5841 96.517 17.7502C96.5742 17.9164 96.5956 18.0924 96.5799 18.2671V38.2915C96.5956 38.4662 96.5742 38.6422 96.517 38.8084C96.4598 38.9745 96.3681 39.1271 96.2476 39.2565C96.1272 39.3858 95.9807 39.4891 95.8174 39.5598C95.6541 39.6305 95.4777 39.667 95.2993 39.667C95.1209 39.667 94.9444 39.6305 94.7812 39.5598C94.6179 39.4891 94.4714 39.3858 94.3509 39.2565C94.2305 39.1271 94.1387 38.9745 94.0815 38.8084C94.0243 38.6422 94.0029 38.4662 94.0187 38.2915V18.2671Z" fill="#283645"/>
<path d="M103.199 18.2963C103.206 17.9697 103.343 17.6587 103.579 17.4285C103.815 17.1984 104.132 17.0671 104.464 17.0621H104.816C105.077 17.0673 105.332 17.137 105.559 17.2647C105.785 17.3923 105.975 17.5739 106.111 17.7927L119.862 35.0229V18.2371C119.862 17.9123 119.993 17.6009 120.226 17.3713C120.46 17.1417 120.777 17.0127 121.107 17.0127C121.437 17.0127 121.754 17.1417 121.988 17.3713C122.221 17.6009 122.352 17.9123 122.352 18.2371V38.3306C122.358 38.4834 122.332 38.6357 122.275 38.7782C122.219 38.9207 122.134 39.0504 122.025 39.1594C121.916 39.2685 121.785 39.3545 121.641 39.4123C121.497 39.4702 121.343 39.4986 121.187 39.4958H121.057C120.79 39.4777 120.531 39.3987 120.301 39.265C120.071 39.1313 119.876 38.9466 119.731 38.7256L105.67 21.0907V38.3306C105.667 38.6489 105.541 38.9542 105.317 39.1838C105.093 39.4134 104.788 39.5498 104.464 39.5649C104.136 39.5597 103.823 39.4271 103.593 39.1959C103.363 38.9647 103.236 38.6537 103.239 38.3306V18.2963H103.199Z" fill="#283645"/>
<path d="M128.74 18.2671C128.725 18.0924 128.746 17.9164 128.803 17.7502C128.86 17.5841 128.952 17.4315 129.073 17.3021C129.193 17.1728 129.34 17.0695 129.503 16.9988C129.666 16.9281 129.843 16.8916 130.021 16.8916C130.199 16.8916 130.376 16.9281 130.539 16.9988C130.702 17.0695 130.849 17.1728 130.969 17.3021C131.09 17.4315 131.182 17.5841 131.239 17.7502C131.296 17.9164 131.317 18.0924 131.302 18.2671V30.4417L144.198 17.4377C144.462 17.1686 144.822 17.0095 145.202 16.9933C145.531 17.0059 145.842 17.1419 146.072 17.3734C146.302 17.6048 146.433 17.9141 146.438 18.2375C146.431 18.4056 146.39 18.5708 146.317 18.7233C146.245 18.8758 146.142 19.0127 146.016 19.1261L137.981 26.9463L146.649 37.3733C146.875 37.6312 147 37.9606 147 38.3014C146.996 38.4721 146.958 38.6404 146.888 38.7965C146.817 38.9527 146.716 39.0936 146.59 39.2111C146.464 39.3286 146.315 39.4203 146.153 39.4811C145.991 39.5419 145.818 39.5705 145.644 39.5653C145.441 39.5598 145.243 39.5045 145.068 39.4045C144.893 39.3044 144.745 39.1629 144.64 38.9926L136.193 28.6348L131.302 33.4335V38.2718C131.302 38.4365 131.269 38.5995 131.204 38.7517C131.14 38.9038 131.046 39.0421 130.928 39.1585C130.81 39.2749 130.669 39.3673 130.514 39.4303C130.359 39.4933 130.193 39.5258 130.026 39.5258C129.858 39.5258 129.693 39.4933 129.538 39.4303C129.383 39.3673 129.242 39.2749 129.124 39.1585C129.006 39.0421 128.912 38.9038 128.848 38.7517C128.783 38.5995 128.75 38.4365 128.75 38.2718V18.2671H128.74Z" fill="#283645"/>
<path d="M98.94 9.74577C97.9748 9.74578 97.0489 9.36951 96.3655 8.69946C95.682 8.02942 95.2967 7.12028 95.2941 6.17139C95.2941 7.11937 94.911 8.02853 94.2292 8.69886C93.5473 9.36919 92.6225 9.74577 91.6582 9.74577C92.6234 9.74839 93.5482 10.1272 94.2298 10.7991C94.9113 11.471 95.2941 12.3811 95.2941 13.33C95.2967 12.3802 95.6817 11.4701 96.3649 10.7985C97.048 10.1268 97.9739 9.74838 98.94 9.74577V9.74577Z" fill="#D22856"/>
<path d="M43.2871 19.0665C43.5382 19.0665 43.7793 19.0665 44.0203 19.0665C43.802 18.6987 43.4898 18.3932 43.1146 18.1802C42.7394 17.9672 42.3142 17.8541 41.881 17.852C41.4628 17.8517 41.0552 17.7231 40.7149 17.4842C40.3746 17.2452 40.1186 16.9078 39.9827 16.519C39.259 16.7243 38.5562 16.9954 37.8835 17.3287H38.0744C38.6071 17.3287 39.1181 17.5368 39.4948 17.9071C39.8715 18.2775 40.0832 18.7798 40.0832 19.3035C40.0881 19.3989 40.0881 19.4945 40.0832 19.5899C41.1091 19.2223 42.1954 19.0449 43.2871 19.0665V19.0665Z" fill="#D22856"/>
<path d="M60.7332 27.6472L55.5406 6.56621C55.179 4.24582 52.9291 0 46.9028 0C46.5033 0 46.1201 0.156044 45.8375 0.433804C45.555 0.711564 45.3962 1.08829 45.3962 1.4811C45.3962 1.87391 45.555 2.25063 45.8375 2.52839C46.1201 2.80615 46.5033 2.9622 46.9028 2.9622C51.7741 2.9622 52.4973 6.6452 52.5676 7.05003L57.3485 26.5018H55.2493C55.0321 24.805 54.4439 23.1744 53.525 21.7222C52.6061 20.2701 51.3783 19.0307 49.926 18.0892C49.4712 18.2774 49.0829 18.5932 48.8096 18.9971C48.5363 19.401 48.3901 19.8751 48.3893 20.3602C48.3948 20.4457 48.3948 20.5314 48.3893 20.6169C49.6107 21.4404 50.6131 22.5401 51.3122 23.8236C52.0113 25.1072 52.3867 26.537 52.4069 27.9928C52.4008 28.4894 52.3538 28.9847 52.2663 29.4739C51.9374 31.5714 50.8559 33.484 49.2173 34.8657C47.5786 36.2474 45.4911 37.007 43.3322 37.007C41.1734 37.007 39.0859 36.2474 37.4472 34.8657C35.8086 33.484 34.727 31.5714 34.3982 29.4739C34.3107 28.9847 34.2637 28.4894 34.2576 27.9928C34.2733 26.6229 34.5993 25.2737 35.2118 24.0432C34.7037 24.0081 34.2282 23.7847 33.8814 23.4181C33.5346 23.0515 33.3424 22.569 33.3436 22.0684C33.3453 21.889 33.277 21.7159 33.1528 21.5846C32.181 23.0752 31.5662 24.7633 31.3549 26.5215H29.4868C29.1663 23.6174 27.7658 20.9319 25.5542 18.9809C23.3427 17.0298 20.4759 15.9507 17.5044 15.9507C14.5329 15.9507 11.6662 17.0298 9.45463 18.9809C7.24307 20.9319 5.84259 23.6174 5.5221 26.5215H3.44302L8.23394 7.05003C8.29421 6.6452 9.0475 2.9622 13.8987 2.9622C14.2983 2.9622 14.6815 2.80615 14.964 2.52839C15.2465 2.25063 15.4053 1.87391 15.4053 1.4811C15.4053 1.08829 15.2465 0.711564 14.964 0.433804C14.6815 0.156044 14.2983 0 13.8987 0C7.87236 0 5.62254 4.24582 5.26096 6.56621L0.0582358 27.6472C-0.00612168 27.8617 -0.0173251 28.0883 0.0255611 28.308C0.0684473 28.5277 0.164178 28.7341 0.304759 28.91C0.44534 29.0859 0.62669 29.2262 0.833664 29.3191C1.04064 29.4121 1.26723 29.455 1.49451 29.4442H5.51206C5.59378 30.055 5.72135 30.659 5.89372 31.2512C5.95717 31.1429 5.99172 31.0206 5.99416 30.8957C5.99416 30.372 6.2058 29.8697 6.58252 29.4993C6.95923 29.129 7.47017 28.9209 8.00293 28.9209C8.16525 28.9248 8.32675 28.9446 8.48504 28.9802C8.44252 28.6526 8.41904 28.323 8.41473 27.9928C8.41742 27.4964 8.46109 27.0011 8.5453 26.5117C8.86708 24.4074 9.94626 22.4864 11.5867 21.0981C13.2271 19.7097 15.3198 18.9461 17.4843 18.9461C19.6489 18.9461 21.7416 19.7097 23.382 21.0981C25.0224 22.4864 26.1016 24.4074 26.4234 26.5117C26.5076 27.0011 26.5513 27.4964 26.554 27.9928C26.5638 29.6507 26.1017 31.2782 25.2199 32.6915C24.3381 34.1047 23.0717 35.2472 21.5639 35.9899C20.0561 36.7326 18.3671 37.0458 16.6877 36.8942C15.0083 36.7425 13.4056 36.132 12.0607 35.1317C11.6982 35.4411 11.235 35.6128 10.755 35.6155C10.5569 35.6181 10.3679 35.6973 10.2288 35.8359C10.0897 35.9745 10.0117 36.1613 10.0117 36.356C10.009 36.6321 9.94739 36.9046 9.83092 37.1558C11.9797 38.9066 14.6835 39.8636 17.4743 39.8613C20.4223 39.8738 23.2728 38.8236 25.4864 36.9095C27.7 34.9953 29.1232 32.35 29.4868 29.4739H31.3147C31.6456 32.3691 33.0499 35.0431 35.2593 36.9848C37.4688 38.9266 40.3285 40 43.2921 40C46.2557 40 49.1154 38.9266 51.3248 36.9848C53.5343 35.0431 54.9385 32.3691 55.2694 29.4739H59.2869C59.5191 29.4904 59.7519 29.4503 59.9647 29.3573C60.1774 29.2642 60.3635 29.121 60.5065 28.9404C60.6495 28.7598 60.7451 28.5473 60.7846 28.3217C60.8241 28.0961 60.8065 27.8645 60.7332 27.6472V27.6472Z" fill="#D22856"/>
<path d="M50.9203 15.9168C50.3273 15.9181 49.7398 15.8044 49.1915 15.5822C48.6432 15.36 48.1448 15.0336 47.725 14.6218C47.3052 14.21 46.9721 13.7208 46.7448 13.1823C46.5176 12.6437 46.4006 12.0664 46.4006 11.4834C46.3979 12.6601 45.9206 13.7878 45.0733 14.6189C44.2259 15.45 43.0778 15.9168 41.8809 15.9168C43.0788 15.9194 44.2268 16.3884 45.0739 17.2211C45.9209 18.0538 46.3979 19.1825 46.4006 20.3601C46.4006 19.1817 46.8768 18.0515 47.7244 17.2182C48.572 16.385 49.7216 15.9168 50.9203 15.9168V15.9168Z" fill="#283645"/>
<path d="M38.0741 19.3828C37.3416 19.3828 36.6391 19.0967 36.1211 18.5875C35.6031 18.0783 35.3121 17.3876 35.3121 16.6675C35.3121 17.3859 35.0225 18.0751 34.5066 18.584C33.9908 19.093 33.2909 19.3802 32.5601 19.3828C33.2899 19.3828 33.9899 19.6679 34.506 20.1752C35.0221 20.6826 35.3121 21.3708 35.3121 22.0883C35.3147 21.3699 35.6069 20.6817 36.1246 20.1746C36.6423 19.6675 37.3433 19.3828 38.0741 19.3828V19.3828Z" fill="#283645"/>
<path d="M10.785 33.6406C10.056 33.6354 9.35856 33.347 8.84491 32.8384C8.33126 32.3297 8.04302 31.642 8.04303 30.9253C8.04304 31.6437 7.75342 32.3329 7.2376 32.8419C6.72178 33.3508 6.02182 33.638 5.29102 33.6406C6.02182 33.6433 6.72178 33.9305 7.2376 34.4394C7.75342 34.9484 8.04304 35.6375 8.04303 36.356C8.04302 35.6392 8.33126 34.9516 8.84491 34.4429C9.35856 33.9342 10.056 33.6459 10.785 33.6406V33.6406Z" fill="#283645"/>
</svg>

<svg xmlns="http://www.w3.org/2000/svg" width="147" height="40" fill="none"><path fill="#283645" d="M72.2 18.43c0-.34.13-.66.36-.9.24-.23.56-.37.9-.38h7.21c5.11 0 8.48 2.68 8.48 7.06v.06c0 4.8-4.08 7.29-8.9 7.29h-5.5v6.73a1.24 1.24 0 0 1-.33.97 1.29 1.29 0 0 1-1.46.3 1.29 1.29 0 0 1-.7-.75 1.24 1.24 0 0 1-.07-.52V18.43Zm8.15 10.86c3.75 0 6.2-1.98 6.2-4.94v-.06c0-3.18-2.41-4.83-6.02-4.83H74.8v9.79l5.55.04ZM94.02 18.27a1.24 1.24 0 0 1 .33-.97 1.29 1.29 0 0 1 1.47-.3 1.29 1.29 0 0 1 .7.75c.05.17.08.34.06.52v20.02a1.25 1.25 0 0 1-.33.97 1.29 1.29 0 0 1-.95.4 1.3 1.3 0 0 1-.95-.4 1.26 1.26 0 0 1-.33-.97V18.27ZM103.2 18.3c0-.33.14-.64.38-.87.23-.23.55-.36.88-.37h.36a1.58 1.58 0 0 1 1.3.73l13.74 17.23V18.24c0-.33.13-.64.37-.87a1.26 1.26 0 0 1 1.76 0c.23.23.36.54.36.87v20.1a1.09 1.09 0 0 1-.32.82 1.15 1.15 0 0 1-.84.34h-.13a1.74 1.74 0 0 1-1.33-.77l-14.06-17.64v17.24c0 .32-.13.62-.35.85-.23.23-.53.37-.86.38a1.21 1.21 0 0 1-1.22-1.23V18.3h-.04ZM128.74 18.27a1.26 1.26 0 0 1 1.28-1.38 1.3 1.3 0 0 1 .95.41 1.25 1.25 0 0 1 .33.97v12.17l12.9-13a1.5 1.5 0 0 1 1-.45c.33.02.64.15.87.38.23.23.36.54.37.87a1.24 1.24 0 0 1-.42.89l-8.04 7.82 8.67 10.42c.22.26.35.6.35.93a1.28 1.28 0 0 1-.85 1.18 1.23 1.23 0 0 1-1.51-.49l-8.45-10.36-4.89 4.8v4.84a1.22 1.22 0 0 1-.37.89 1.27 1.27 0 0 1-.9.37 1.3 1.3 0 0 1-1.18-.78c-.07-.15-.1-.31-.1-.48v-20h-.01Z"/><path fill="#D22856" d="M98.94 9.75c-.97 0-1.9-.38-2.57-1.05a3.55 3.55 0 0 1-1.08-2.53c0 .95-.38 1.86-1.06 2.53a3.67 3.67 0 0 1-2.57 1.05c.96 0 1.89.38 2.57 1.05a3.55 3.55 0 0 1 1.06 2.53c0-.95.4-1.86 1.07-2.53a3.69 3.69 0 0 1 2.58-1.05ZM43.29 19.07h.73a2.47 2.47 0 0 0-2.14-1.22 2.03 2.03 0 0 1-1.9-1.33c-.72.2-1.42.48-2.1.8h.2c.53 0 1.04.22 1.41.59.38.37.6.87.6 1.4v.28a8.97 8.97 0 0 1 3.2-.52Z"/><path fill="#D22856" d="M60.73 27.65 55.54 6.57C55.18 4.25 52.93 0 46.9 0c-.4 0-.78.16-1.06.43a1.47 1.47 0 0 0 0 2.1c.28.28.66.43 1.06.43 4.87 0 5.6 3.69 5.67 4.09l4.78 19.45h-2.1a11.72 11.72 0 0 0-5.32-8.41 2.5 2.5 0 0 0-1.54 2.27 2 2 0 0 1 0 .26 9.15 9.15 0 0 1 4.02 7.37c0 .5-.06 1-.14 1.48a8.85 8.85 0 0 1-3.05 5.4 9.13 9.13 0 0 1-11.77 0 8.85 8.85 0 0 1-3.05-5.4 9.04 9.04 0 0 1-.14-1.48 9.1 9.1 0 0 1 .95-3.95c-.5-.03-.98-.26-1.33-.62a1.96 1.96 0 0 1-.54-1.35.7.7 0 0 0-.19-.49 11.57 11.57 0 0 0-1.8 4.94H29.5a11.78 11.78 0 0 0-3.94-7.54 12.17 12.17 0 0 0-16.1 0 11.78 11.78 0 0 0-3.93 7.54H3.44l4.8-19.47c.05-.4.8-4.09 5.66-4.09.4 0 .78-.15 1.06-.43a1.47 1.47 0 0 0 0-2.1A1.52 1.52 0 0 0 13.9 0C7.87 0 5.62 4.25 5.26 6.57L.06 27.65A1.38 1.38 0 0 0 .3 28.9a1.42 1.42 0 0 0 1.2.53H5.5c.08.61.21 1.22.38 1.81.07-.1.1-.23.1-.35a2.03 2.03 0 0 1 2.5-1.92 8.54 8.54 0 0 1 .06-2.47 8.85 8.85 0 0 1 3.04-5.41 9.13 9.13 0 0 1 11.8 0 8.85 8.85 0 0 1 3.03 5.41 8.78 8.78 0 0 1-1.2 6.18 9.17 9.17 0 0 1-13.16 2.44c-.36.31-.82.48-1.3.49-.2 0-.4.08-.53.22a.73.73 0 0 0-.22.52c0 .27-.06.54-.18.8a12.09 12.09 0 0 0 7.64 2.7c2.95.01 5.8-1.04 8.02-2.95a11.79 11.79 0 0 0 4-7.44h1.82c.34 2.9 1.74 5.57 3.95 7.51a12.17 12.17 0 0 0 16.06 0 11.78 11.78 0 0 0 3.95-7.5h4.02a1.44 1.44 0 0 0 1.22-.54 1.38 1.38 0 0 0 .22-1.3Z"/><path fill="#283645" d="M50.92 15.92a4.58 4.58 0 0 1-3.2-1.3 4.43 4.43 0 0 1-1.32-3.14 4.4 4.4 0 0 1-1.33 3.14c-.84.83-2 1.3-3.19 1.3 1.2 0 2.35.47 3.2 1.3a4.42 4.42 0 0 1 1.32 3.14c0-1.18.48-2.3 1.32-3.14.85-.83 2-1.3 3.2-1.3ZM38.07 19.38c-.73 0-1.43-.28-1.95-.8a2.7 2.7 0 0 1-.8-1.91c0 .72-.3 1.4-.81 1.91-.52.51-1.22.8-1.95.8.73 0 1.43.29 1.95.8.51.5.8 1.2.8 1.9 0-.71.3-1.4.81-1.9.52-.51 1.22-.8 1.95-.8ZM10.79 33.64c-.73 0-1.43-.3-1.95-.8a2.7 2.7 0 0 1-.8-1.91c0 .71-.29 1.4-.8 1.91-.52.51-1.22.8-1.95.8.73 0 1.43.3 1.95.8.51.5.8 1.2.8 1.92 0-.72.3-1.4.8-1.92.52-.5 1.22-.8 1.95-.8Z"/></svg>
